X: 217
T: The Blackest Crow
C:Traditional
B: canberra pickers and fiddlers
B: songs
B: traditional songs
B: tunes
B: working
M:3/4
L:1/8
R: waltz
Q: 1/4=170
K:Em
V:1 
|:B2|"D"A4 G2|E4 D2|"G"G4 A2|B4 d2|"D"B4 A2|G4 D2|
"Em"E6|E4 B2|"D"A2 A2 G2|E4 DD|"G"G4 A2|B4 d2|
"D"B4 A2|G4 D2|"Em"E6|E4 D2|"G"G4 G2|G2 A2 B2|d4 d2|
B4 dd|"Em"e4 e2|"D"d4 e2|"Em"B6|B4 B2|"D"A4 G2|E4 D2|
"G"G2 G2 A2|B4 d2|"D"B4 A2|G4 D2|"Em"E6|E2:|
W: As time draws near my dearest dear when you and I must part
W: How little you know of the grief and woe in my poor aching heart
W: Each night I suffer for your sake, you’re the girl I love so dear
W: I wish that I was going with you or you were staying here
W: 
W: I wish my breast were made of glass wherein you might behold
W: Upon my heart your name lies wrote in letters made of gold
W: In letters made of gold my love, believe me when I say
W: You are the one that I will adore until my dying day
W: 
W: The blackest crow that ever flew would surely turn to white
W: If ever I prove false to you bright day will turn to night
W: Bright day will turn to night my love, the elements will mourn
W: If ever I prove false to you the seas will rage and burn
W: 
W: And when you’re on some distant shore think of your absent friend
W: And when the wind blows high and clear a light to me pray send
W: And when the wind blows high and clear pray send your love to me
W: That I might know by your hand light how time has gone with thee
% abcbook-tune_id 63ae8f1c14209a9859ef8fcc
% abcbook-tune_composer_id 
% abcbook-link-0 https://www.youtube.com/watch?v=4wRnDa7GdzQ
% abcbook-link-title-0 The Blackest Crow - Red Tail Ring
% abcbook-link-start-at-0 3
% abcbook-boost 0
% abcbook-difficulty 1
% abcbook-tags canberra pickers and fiddlers,old time tunes,steve ryan,steve set,test,vcs,© free
% abcbook-tablature 
% abcbook-transpose -2
% abcbook-tuning GDAD
% abcbook-lastupdated 1732672210317
% abcbook-src-url https://tunebook.net/scrape/traditional%20songs.abc
% abcbook-soundfonts 
% abcbook-repeats 1
%%MIDI transpose -2


